/* XPM */
static char *wall_north[] = {
"64 64 2 1",
"  c #000000",
". c #FFFFFF",
"                                                                ",
"................................................................",
"                                                                ",
"................................................................",
"                                                                ",
"................................................................",
"                                                                ",
"................................................................"
};