/* XPM */
static char *wall_east[] = {
"64 64 2 1",
"  c #000000",
". c #444444",
"                                                                ",
"................................................................",
"                                                                ",
"................................................................",
"                                                                ",
"................................................................",
"                                                                ",
"................................................................"
};